train-bus.svg

<svg fill="currentColor" viewBox="0 0 24 24"><path d="M5 2h7c.8 0 1.56.32 2.12.88S15 4.2 15 5v1h-2V4H4v7h5v5H8l-3 3H4v-2l1-1c-.8 0-1.56-.32-2.12-.88S2 13.8 2 13V5c0-.8.32-1.56.88-2.12S4.2 2 5 2m.71 10.29C5.5 12.11 5.27 12 5 12c-.26 0-.5.11-.71.29-.18.21-.29.45-.29.71 0 .27.11.5.29.71.21.19.45.29.71.29.27 0 .5-.1.71-.29.19-.21.29-.44.29-.71 0-.26-.1-.5-.29-.71M11 11c0-1.66 1-3 4-3h3c3 0 4 1.34 4 3v7c0 .74-.4 1.39-1 1.73V21c0 .55-.45 1-1 1s-1-.45-1-1v-1h-5v1c0 .55-.45 1-1 1s-1-.45-1-1v-1.27c-.6-.34-1-.99-1-1.73zm2-1v4h7v-4zm1 8c.55 0 1-.45 1-1s-.45-1-1-1-1 .45-1 1 .45 1 1 1m6-1c0-.55-.45-1-1-1s-1 .45-1 1 .45 1 1 1 1-.45 1-1"/></svg>

<svg  viewBox="0 0 24 24" fill="currentColor"><path  d="M5 2H12C12.8 2 13.56 2.32 14.12 2.88C14.68 3.44 15 4.2 15 5V6H13V4H4V11H9V16H8L5 19H4V17L5 16C4.2 16 3.44 15.68 2.88 15.12C2.32 14.56 2 13.8 2 13V5C2 4.2 2.32 3.44 2.88 2.88C3.44 2.32 4.2 2 5 2M5.71 12.29C5.5 12.11 5.27 12 5 12C4.74 12 4.5 12.11 4.29 12.29C4.11 12.5 4 12.74 4 13C4 13.27 4.11 13.5 4.29 13.71C4.5 13.9 4.74 14 5 14C5.27 14 5.5 13.9 5.71 13.71C5.9 13.5 6 13.27 6 13C6 12.74 5.9 12.5 5.71 12.29M11 11C11 9.34 12 8 15 8H18C21 8 22 9.34 22 11V18C22 18.74 21.6 19.39 21 19.73V21C21 21.55 20.55 22 20 22C19.45 22 19 21.55 19 21V20H14V21C14 21.55 13.55 22 13 22C12.45 22 12 21.55 12 21V19.73C11.4 19.39 11 18.74 11 18V11M13 10V14H20V10H13M14 18C14.55 18 15 17.55 15 17C15 16.45 14.55 16 14 16C13.45 16 13 16.45 13 17C13 17.55 13.45 18 14 18M20 17C20 16.45 19.55 16 19 16C18.45 16 18 16.45 18 17C18 17.55 18.45 18 19 18C19.55 18 20 17.55 20 17Z"/></svg>
